X:1
T:Shepherd Care, 65.65 refrain
T:Shepherd Care, 65.65 refrain
T:Ukrainian Tune
T:Public Domain Courtesy of the Cyber Hymnal™
C:Ukrainian Tune
Z:Public Domain
Z:Courtesy of the Cyber Hymnal™
%%score ( 1 2 ) ( 3 4 )
L:1/8
Q:1/4=110
M:3/4
K:Ab
V:1 treble 
V:2 treble 
V:3 bass 
V:4 bass 
V:1
 [CF]2 [CG] A G[CF] | G3 [A,F]3 | [FA][FA] [GB] [Ac]2 [EA] | [GB]6 | [FB]2 [Fc] [=Ed] [Fc][FB] | %5
 c3 [FA]3 | [FG]2 [FB] [FA]2 [=EG] | F6 | C2 [CF] [A,F]2 [CG] | A2 G F3 | [=EG]2 [CB] [FB]2 [FB] | %11
 [=EB]6 | A2 G F2 d | c6 x | [EB]2 [FA] [FG]2 [=EA] | F6 | c2 [Bc] [Ac]2 [Gc] | [Ff]6 | %18
 [Be]2 [Ad] [Gc]2 [FB] | [=Ec]6 | A2 G F2 [Ed] | [Ec]4- [Ec][GB] | [FA]2 [FA] [FG]2 [=EA] | F8 |] %24
V:2
 x3 C2 x | D2 C x3 | x6 | x6 | x6 | F2 =E x3 | x6 | x6 | x6 | C6 | x6 | x6 | x5 G/F/ | =E2 F G3 x | %14
 x6 | x6 | x6 | x6 | x6 | x6 | x6 | x6 | x6 | F8 |] %24
V:3
 [F,A,]2 [=E,G,] F,2 [A,,F,] | [B,,F,]2 [C,=E,] [F,,F,]3 | [F,C][F,C] [E,E] [A,E]2 [A,C] | [G,E]6 | %4
 [D,B,]2 [C,A,] [B,,G,] [A,,A,][D,B,] | G,2 C [F,C]3 | [D,B,]2 [B,,D] [C,C]2 [C,B,] | [F,A,]6 | %8
 F,2 [A,,F,] [D,F,]2 [C,=E,] | [C,F,]2 [C,E,] [A,,D,]3 | [C,G,]2 [C,=E,] [D,F,]2 [D,G,] | [C,G,]6 | %12
 [F,C]2 [F,B,] [F,A,]2 B,/A,/ | G,4 [=E,C]3 | [G,C]2 [F,C] [B,,D]2 [C,C] | [F,A,]6 | %16
 C2 [C,C] [=D,C]2 [=E,C] | [A,C]6 | [G,B,]2 [F,D] [E,G,]2 [D,B,] | [A,C]6 | A,2 G, F,2 [E,G,] | %21
 [A,,A,]4- [A,,A,][B,,D] | [C,C]2 [C,C] [B,,D]2 [B,,C] | [F,A,]8 |] %24
V:4
 x6 | x6 | x6 | x6 | x6 | C,3 x3 | x6 | x6 | x6 | x6 | x6 | x6 | x5 B,, | C,2 =D, x4 | x6 | x6 | %16
 x6 | x6 | x6 | x6 | x6 | x6 | x6 | x8 |] %24

